X: 887
T: Whistling Mike   #2
R: hornpipe
%S: s:2 b:10(6+4)
B: Francis O'Neill: "The Dance Music of Ireland" (1907) #887
Z: Frank Nordberg - http://www.musicaviva.com
F: http://www.musicaviva.com/abc/tunes/ireland/oneill-1001/0887/oneill-1001-0887-1.abc
N: Compacted via repeats and multiple endings [JC]
N: Compacted by using labels and play order [JC]
P: Play (A1A2)x2 + (BA2)x2
M: 2/4
L: 1/16
K: G
"^A"[|]\
(3(DEF) | GABc dBgf | efge dBGB | cedc [1,3 BAGB | AGFE D2 :|[2,4 B>A (3(GAB) | A2G2"^fine"G2 :| 
"^B"|: (3(def) | gdBd edBd | gdBd edBd | gfed cBAG | F>A (3(GFE) "^->A2"D2 |]
